!!!COM: Johanna Kinkel
!!!CNT: Deutsch
!!!TXO: Deutsch
!!!OTL: Ro2mische Nacht
!!!LYR: Gottfried Kinkel
!!!OPR: Sechs Lieder
!!!OPS: Op. 15
!!!ONM: No. 1
!!!ENC: Ben Fuhrman
!!!YOR: Frauen komponieren: 25 Lieder fu2r Singstimme und Klavier
!!!YOR: Mainz, B. Schott's So2hne, 1992.
!!!ODT: 1838
!!NB: Only vocal melody encoded.
!!NB: First instance of melodic material only encoded.
!!created: 2/19/10 3:45PM
!!proofed and posted: 2/19/10 3:45PM
**kern	**silbe
*clef G2	*
*k[f#c#]	*
*M4/4	*
*MM[Adagio ma non troppo]	*
=8	=8
2r	.
4r	.
{8d	{Rings-
8f#	|
=9	=9
4.a	-um
8a	auf
4.b	al-
8a	-len
=10	=10
4.a	Pla2t-
8a	-zen
(4.g	schla2ft
8e)	|
=11	=11
4.d	un-
8d	-be-
4e	-wegt
8b	die
8a	|
=12	=12
2.a}	Nacht,}
{8d	{am-
8f#	|
=13	=13
4.a	blau-
8a	-en
4cc#	Him-
8b	-mel
8a	-mel
=14	=14
2.dd	ste-
8b	-het
8g	der
=15	=15
4.f#	Mond
8f#	in
8f#	hel-
8e	|
8g	-ler
8f#	|
=16	=16
2d}	Pracht.}
4r	.
{8e	{So
8f#	|
=17	=17
4.g	to-
8g	-ten-
4f#	-still
4d#	sind
=18	=18
(4.e	bei-
8f#)	|
4g	-de,
4g	das
=19	=19
4.g	alt'
8g#	und
4a	neu-
4d	-e
=20	=20
2b}	Rom,}
4r	.
{4b	{und
=21	=21
4a	selbst
4a	ihr
4.b	Rie-
8a	-sen-
=22	=22
2dd	-wa2ch-
4d	-ter
4d#	nickt
=23	=23
4e	ein,
4a	Sankt
4b	Pe-
4e	-ters
=24	=24
2a}	Dom.}
4r	.
{4a	{Nur
=25	=25
4.b	wun-
8f#	-der-
(aq	-sam
8g)	|
8f#	|
8g	noch
8b	|
=26	=26
(8.a	rau-
16b	|
8.a	|
16g)	|
4f#	-schen
8r	.
8a	die
=27	=27
4.g#	Brun-
8a	-nen
4.b	nah
8g#	und
=28	=28
[1a	fern.
=29	=29
1a_	|
=30	=30
4a]}	|}
4r	.
2r	.
=31	=31
1r	.
=32	=32
2r	.
4r	.
{4a	{Die
=33	=33
4.b	hal-
8a	-ten
(aq	wach
8g)	|
8f#	|
8g	die
8b	|
=34	=34
(4.a	See
8g)	|
4f#	-le,
4a	die
=35	=35
4g	selbst
4fn	ent-
4e	-schlie-
4d	-fe
=36	=36
[1e	gern,
=37	=37
2e]}	|}
{(4f#	{die
4g)	|
=38	=38
4.a	spu2-
8a	-len
4a	aus
(cc#q	dem
8b)	|
8a	|
=39	=39
4a	Her-
4f#	-zen
4a	lei-
8g	-se
8e	das
=40	=40
2d	al-
2e	-te
=41	=41
2.fn}	Leid,}
{4fn	{im
=42	=42
4g	blau-
8e-	-en
8g	|
8b-	Mond-
8a-	|
12a-	-licht
12g	|
12fn	|
=43	=43
(4.g	da2m-
8an)	|
4b-	-mert
4g	weit
=44	=44
4.g	fort
8g	die
4.a	al-
8a	-te
=45	=45
2.b-}	Zeit,}
4r	.
=46	=46
{2d	{weit
2ccn	fort,
=47	=47
2b-	weit
4.a	fort
8g	die
=48	=48
2.f	al-
4e	-te
=49	=49
2d}	Zeit.}
4r	.
{8d	{Im
8f#	|
=50	=50
4.a	blau-
8a	-en
4b	Mond-
4a	-licht
=51	=51
2a	da2m-
4g	-mert
4e	weit
=52	=52
4.d	fort
8d	die
4.c#	al-
8c#	-te
=53	=53
[1d	Zeit.
=54	=54
1d_	|
=55	=55
2d]}	|}
2r	.
==	==
*-	*-
